X: 1
T: la Grand' B\^ete
C:Gilles Chabenat
M:2/4
L:1/8
R:shottish
F:http://richardrobinson.tunebook.org.uk/tune/5348
F:http://richardrobinson.tunebook.org.uk/static/tunebook.abc
K:Dm
|:\
"Dm"DEFG A2A2 | "Gm"GABG "A7"A4 | "Dm"FAGF "A7"EGFE | "Dm"DEFG "(A7)"A2F2 |\
"Dm"DEFG A2A2 | "Gm"GABG "A7"A4 | "C"c2=B2 A2G2 | "A7"EGFE "Dm"D4 :|
|:\
"Dm"A4 d4 | "A7"^cdec "Dm"d4 | "Dm"ABcA "C7"cBAG | "C7"FEFG "F"A2F2 |\
"Dm"A4 d4 | "A7"^cdec "Dm"d4 | "Dm"ABcA "Gm"cBAG | "A7"FGFE "Dm"D4 :|

%%sep 1 1 500

